X: 31260
T: Paddy From Portlaw
R: jig
M: 6/8
K: Dmajor
B|AFD ~D2D|AFD D2B|AFD DEF|~GFG EFG|
AFD ~DED|DFA d2e|fed B/c/dB|1 AFD D2:|2 AFD D2||
|:f|afd ~dcd|afd d2f|afd def|~g3 efg|
~a3 bag|agf gfe|fed B/c/dB|1 AFD D2:|2 AFD D2||

